svg/Mapbox-maki/rail-light-12.svg

<?xml version="1.0" encoding="UTF-8" standalone="no"?>
<!-- Created with Inkscape (http://www.inkscape.org/) -->

<svg
   xmlns:dc="http://purl.org/dc/elements/1.1/"
   xmlns:cc="http://creativecommons.org/ns#"
   xmlns:rdf="http://www.w3.org/1999/02/22-rdf-syntax-ns#"
   xmlns:svg="http://www.w3.org/2000/svg"
   xmlns="http://www.w3.org/2000/svg"
   xmlns:sodipodi="http://sodipodi.sourceforge.net/DTD/sodipodi-0.dtd"
   xmlns:inkscape="http://www.inkscape.org/namespaces/inkscape"
   width="12"
   height="12"
   id="svg4764"
   version="1.1"
   inkscape:version="0.48.2 r9819"
   sodipodi:docname="rail-light-12.svg">
  <defs
     id="defs4766" />
  <sodipodi:namedview
     id="base"
     pagecolor="#ffffff"
     bordercolor="#666666"
     borderopacity="1.0"
     inkscape:pageopacity="0.0"
     inkscape:pageshadow="2"
     inkscape:zoom="32"
     inkscape:cx="7.0122107"
     inkscape:cy="6.9452487"
     inkscape:document-units="px"
     inkscape:current-layer="layer1"
     showgrid="true"
     showguides="false"
     inkscape:guide-bbox="true"
     inkscape:window-width="1409"
     inkscape:window-height="958"
     inkscape:window-x="207"
     inkscape:window-y="0"
     inkscape:window-maximized="0">
    <inkscape:grid
       type="xygrid"
       id="grid4772"
       empspacing="2"
       visible="true"
       enabled="true"
       snapvisiblegridlinesonly="true"
       color="#ff00ff"
       opacity="0.1254902"
       empcolor="#ff00ff"
       empopacity="0.25098039" />
    <sodipodi:guide
       orientation="0,1"
       position="2,12"
       id="guide4789" />
    <sodipodi:guide
       orientation="1,0"
       position="12,10"
       id="guide4791" />
    <sodipodi:guide
       orientation="0,1"
       position="10,0"
       id="guide4793" />
    <sodipodi:guide
       orientation="1,0"
       position="0,9"
       id="guide4795" />
    <sodipodi:guide
       orientation="0,1"
       position="5,11"
       id="guide4797" />
    <sodipodi:guide
       orientation="1,0"
       position="11,7"
       id="guide4799" />
    <sodipodi:guide
       orientation="0,1"
       position="9,2"
       id="guide4801" />
    <sodipodi:guide
       orientation="1,0"
       position="2,5"
       id="guide4803" />
  </sodipodi:namedview>
  <metadata
     id="metadata4769">
    <rdf:RDF>
      <cc:Work
         rdf:about="">
        <dc:format>image/svg+xml</dc:format>
        <dc:type
           rdf:resource="http://purl.org/dc/dcmitype/StillImage" />
        <dc:title />
      </cc:Work>
    </rdf:RDF>
  </metadata>
  <g
     inkscape:label="Layer 1"
     inkscape:groupmode="layer"
     id="layer1"
     transform="translate(0,-1040.3622)">
    <path
       style="font-size:medium;font-style:normal;font-variant:normal;font-weight:normal;font-stretch:normal;text-indent:0;text-align:start;text-decoration:none;line-height:normal;letter-spacing:normal;word-spacing:normal;text-transform:none;direction:ltr;block-progression:tb;writing-mode:lr-tb;text-anchor:start;baseline-shift:baseline;color:#000000;fill:#ffffff;fill-opacity:1;stroke:none;stroke-width:2;marker:none;visibility:visible;display:inline;overflow:visible;enable-background:accumulate;font-family:Sans;-inkscape-font-specification:Sans;opacity:0.3"
       d="M 5.40625,0 C 5.2402537,0.012 5.0774859,0.06595 4.9375,0.15625 l -1.5,1 C 3.2892391,1.25755 3.1690896,1.3995 3.09375,1.5625 l -1,2 C 2.030132,3.6988 1.997818,3.8496 2,4 l 0,4 c 1.85e-5,0.1844899 0.087984,0.3460165 0.1875,0.5 C 2.0879839,8.6539893 2.0000184,8.8155155 2,9 l 0,1 c 5.24e-5,0.523584 0.4764155,0.999948 1,1 l 3,0 c 0.1844845,-1.8e-5 0.3460107,-0.05673 0.5,-0.15625 C 6.6539893,10.943266 6.8155155,10.999982 7,11 l 3,0 c 0.523584,-5.2e-5 0.999948,-0.476416 1,-1 L 11,9 C 10.999982,8.8155155 10.912016,8.6539893 10.8125,8.5 10.912016,8.3460165 10.999982,8.1844899 11,8 L 11,4 C 11.0022,3.8496 10.96987,3.6988 10.90625,3.5625 l -1,-2 C 9.83091,1.3995 9.7107609,1.25755 9.5625,1.15625 l -1.5,-1 C 7.8959467,0.05015 7.6974161,-0.005 7.5,0 6.8020833,0 6.1041667,0 5.40625,0 z"
       transform="translate(0,1040.3622)"
       id="path3177"
       inkscape:connector-curvature="0"
       sodipodi:nodetypes="cccccccccccccccccccccccccc" />
    <path
       style="fill:#444444;fill-opacity:1;stroke:none"
       d="M 5.5 1 L 4 2 L 3 4 L 3 8 L 10 8 L 10 4 L 9 2 L 7.5 1 L 5.5 1 z M 5.5 2 L 6 2 L 6 5 L 4 5 L 4.5 3.5 L 5.5 2 z M 7 2 L 7.5 2 L 8.5 3.5 L 9 5 L 7 5 L 7 2 z M 4 6 L 5 6 L 5 7 L 4 7 L 4 6 z M 8 6 L 9 6 L 9 7 L 8 7 L 8 6 z "
       transform="translate(0,1040.3622)"
       id="path3248" />
    <path
       style="fill:#444444;fill-opacity:1;stroke:none"
       d="m 4,1048.8622 0,0.5 -1,0 0,1 3,0 c 0,-0.5 0,-1 0,-1.5 z"
       id="path3266"
       inkscape:connector-curvature="0"
       sodipodi:nodetypes="ccccccc" />
    <path
       sodipodi:nodetypes="ccccccc"
       inkscape:connector-curvature="0"
       id="path3268"
       d="m 9,1048.8622 -2,0 c 0,0.5 0,1 0,1.5 l 3,0 0,-1 -1,0 z"
       style="fill:#444444;fill-opacity:1;stroke:none" />
  </g>
</svg>

<svg xmlns="http://www.w3.org/2000/svg" viewBox="0 0 12 12"><g transform="translate(0-1040.36)"><g transform="translate(0 1040.36)"><path d="m5.406 0c-.166.012-.329.066-.469.156l-1.5 1c-.148.101-.268.243-.344.406l-1 2c-.064.136-.096.287-.094.438v4c0 .184.088.346.188.5-.1.154-.187.316-.188.5v1c0 .524.476 1 1 1h3c.184 0 .346-.057.5-.156.154.1.316.156.5.156h3c.524 0 1-.476 1-1v-1c0-.184-.088-.346-.188-.5.1-.154.187-.316.188-.5v-4c.002-.15-.03-.301-.094-.438l-1-2c-.075-.163-.195-.305-.344-.406l-1.5-1c-.167-.106-.365-.161-.563-.156-.698 0-1.396 0-2.094 0" opacity=".3" color="#000" fill="#fff"/><path d="m5.5 1l-1.5 1-1 2v4h7v-4l-1-2-1.5-1h-2m0 1h.5v3h-2l.5-1.5 1-1.5m1.5 0h.5l1 1.5.5 1.5h-2v-3m-3 4h1v1h-1v-1m4 0h1v1h-1v-1" fill="#444"/></g><g fill="#444"><path d="m4 1048.86v.5h-1v1h3c0-.5 0-1 0-1.5z"/><path d="m9 1048.86h-2c0 .5 0 1 0 1.5h3v-1h-1z"/></g></g></svg>
